src/icons/0201_monitorArrowUp_a_48.svg

<svg xmlns="http://www.w3.org/2000/svg" viewBox="0 0 48 48"><path d="M46 2H36v2.957h9.043V27H2.957V4.957H12V2H2a2.006 2.006 0 00-2 2v32a2.006 2.006 0 002 2h19v5h-5v3h16v-3h-5v-5h19a2.006 2.006 0 002-2V4a2.006 2.006 0 00-2-2zM24 34.511a2.215 2.215 0 112.215-2.211A2.215 2.215 0 0124 34.511zm6.933-23.322L26 6.537V22h-4V6.537l-4.933 4.652L14.6 8.863 24 0l9.4 8.863z"/></svg>

<svg id="OLD" xmlns="http://www.w3.org/2000/svg" viewBox="0 0 48 48"><path d="M46,2H36V4.957h9.043V27H2.957V4.957H12V2H2A2.006,2.006,0,0,0,0,4V36a2.006,2.006,0,0,0,2,2H21v5H16v3H32V43H27V38H46a2.006,2.006,0,0,0,2-2V4A2.006,2.006,0,0,0,46,2ZM24,34.511A2.215,2.215,0,1,1,26.215,32.3,2.215,2.215,0,0,1,24,34.511Zm6.933-23.322L26,6.537V22H22V6.537l-4.933,4.652L14.6,8.863,24,0l9.4,8.863Z"/></svg>
